;FLAVOR:RepRap
;TIME:4021
;Filament used: 10.0484m
;Layer height: 0.2
;MINX:67.198
;MINY:41.07
;MINZ:0.3
;MAXX:182.802
;MAXY:158.93
;MAXZ:6.9
;Generated with Cura_SteamEngine 4.9.1
T0
M190 S60
M104 S205
M109 S205
M82 ;absolute extrusion mode
G28 X0 Y0; Home X and Y
G28 Z0; Home Z
G21 ; mm
G90 ; abs
G92 E0 ; reset extr
M83 ;relative extrusion mode
G1 F4800 E-1.2
;LAYER_COUNT:34
;LAYER:0
M107
G0 F4500 X67.821 Y42.786 Z0.3
;TYPE:SKIRT
G1 F4800 E1.2
G1 F3000 X68.155 Y42.348 E0.02748
G1 X68.55 Y41.964 E0.02748
G1 X68.996 Y41.64 E0.0275
G1 X69.484 Y41.385 E0.02747
G1 X70.004 Y41.202 E0.0275
G1 X70.545 Y41.097 E0.02749
G1 X70.998 Y41.07 E0.02264
G1 X179.002 Y41.07 E5.38834
G1 X179.552 Y41.11 E0.02751
G1 X180.09 Y41.229 E0.02749
G1 X180.605 Y41.425 E0.02749
G1 X181.086 Y41.693 E0.02747
G1 X181.524 Y42.027 E0.02748
G1 X181.908 Y42.422 E0.02748
G1 X182.232 Y42.868 E0.0275
G1 X182.487 Y43.356 E0.02747
G1 X182.67 Y43.876 E0.0275
G1 X182.775 Y44.417 E0.02749
G1 X182.802 Y44.87 E0.02264
G1 X182.802 Y155.13 E5.50089
G1 X182.762 Y155.68 E0.02751
G1 X182.643 Y156.218 E0.02749
G1 X182.447 Y156.733 E0.02749
G1 X182.179 Y157.214 E0.02747
G1 X181.845 Y157.652 E0.02748
G1 X181.45 Y158.036 E0.02748
G1 X181.004 Y158.36 E0.0275
G1 X180.516 Y158.615 E0.02747
G1 X179.996 Y158.798 E0.0275
G1 X179.455 Y158.903 E0.02749
G1 X179.002 Y158.93 E0.02264
G1 X70.998 Y158.93 E5.38834
G1 X70.448 Y158.89 E0.02751
G1 X69.91 Y158.771 E0.02749
G1 X69.395 Y158.575 E0.02749
G1 X68.914 Y158.307 E0.02747
G1 X68.476 Y157.973 E0.02748
G1 X68.092 Y157.578 E0.02748
G1 X67.768 Y157.132 E0.0275
G1 X67.513 Y156.644 E0.02747
G1 X67.33 Y156.124 E0.0275
G1 X67.225 Y155.583 E0.02749
G1 X67.198 Y155.13 E0.02264
G1 X67.198 Y44.87 E5.50089
G1 X67.238 Y44.32 E0.02751
G1 X67.357 Y43.782 E0.02749
G1 X67.553 Y43.267 E0.02749
G1 X67.821 Y42.786 E0.02747
G0 F4500 X68.218 Y42.912
G1 F3000 X68.55 Y42.51 E0.02601
G1 X68.94 Y42.164 E0.02601
G1 X69.378 Y41.881 E0.02602
G1 X69.853 Y41.668 E0.02597
G1 X70.356 Y41.531 E0.02601
G1 X70.998 Y41.47 E0.03217
G1 X179.002 Y41.47 E5.38834
G1 X179.522 Y41.51 E0.02602
G1 X180.029 Y41.629 E0.02598
G1 X180.512 Y41.824 E0.02599
G1 X180.96 Y42.09 E0.02599
G1 X181.362 Y42.422 E0.02601
G1 X181.708 Y42.812 E0.02601
G1 X181.991 Y43.25 E0.02602
G1 X182.204 Y43.725 E0.02597
G1 X182.341 Y44.228 E0.02601
G1 X182.402 Y44.87 E0.03217
G1 X182.402 Y155.13 E5.50089
G1 X182.362 Y155.65 E0.02602
G1 X182.243 Y156.157 E0.02598
G1 X182.048 Y156.64 E0.02599
G1 X181.782 Y157.088 E0.02599
G1 X181.45 Y157.49 E0.02601
G1 X181.06 Y157.836 E0.02601
G1 X180.622 Y158.119 E0.02602
G1 X180.147 Y158.332 E0.02597
G1 X179.644 Y158.469 E0.02601
G1 X179.002 Y158.53 E0.03217
G1 X70.998 Y158.53 E5.38834
G1 X70.478 Y158.49 E0.02602
G1 X69.971 Y158.371 E0.02598
G1 X69.488 Y158.176 E0.02599
G1 X69.04 Y157.91 E0.02599
G1 X68.638 Y157.578 E0.02601
G1 X68.292 Y157.188 E0.02601
G1 X68.009 Y156.75 E0.02602
G1 X67.796 Y156.275 E0.02597
G1 X67.659 Y155.772 E0.02601
G1 X67.598 Y155.13 E0.03217
G1 X67.598 Y44.87 E5.50089
G1 X67.638 Y44.35 E0.02602
G1 X67.757 Y43.843 E0.02598
G1 X67.952 Y43.36 E0.02599
G1 X68.218 Y42.912 E0.02599
G0 F4500 X68.616 Y43.046
G1 F3000 X68.944 Y42.683 E0.02441
G1 X69.327 Y42.378 E0.02443
G1 X69.755 Y42.14 E0.02443
G1 X70.215 Y41.974 E0.0244
G1 X70.998 Y41.87 E0.03941
G1 X179.002 Y41.87 E5.38834
G1 X179.49 Y41.91 E0.02443
G1 X179.965 Y42.029 E0.02443
G1 X180.414 Y42.223 E0.0244
G1 X180.826 Y42.488 E0.02444
G1 X181.189 Y42.816 E0.02441
G1 X181.494 Y43.199 E0.02443
G1 X181.732 Y43.627 E0.02443
G1 X181.898 Y44.087 E0.0244
G1 X182.002 Y44.87 E0.03941
G1 X182.002 Y155.13 E5.50089
G1 X181.962 Y155.618 E0.02443
G1 X181.843 Y156.093 E0.02443
G1 X181.649 Y156.542 E0.0244
G1 X181.384 Y156.954 E0.02444
G1 X181.056 Y157.317 E0.02441
G1 X180.673 Y157.622 E0.02443
G1 X180.245 Y157.86 E0.02443
G1 X179.785 Y158.026 E0.0244
G1 X179.002 Y158.13 E0.03941
G1 X70.998 Y158.13 E5.38834
G1 X70.51 Y158.09 E0.02443
G1 X70.035 Y157.971 E0.02443
G1 X69.586 Y157.777 E0.0244
G1 X69.174 Y157.512 E0.02444
G1 X68.811 Y157.184 E0.02441
G1 X68.506 Y156.801 E0.02443
G1 X68.268 Y156.373 E0.02443
G1 X68.102 Y155.913 E0.0244
G1 X67.998 Y155.13 E0.03941
G1 X67.998 Y44.87 E5.50089
G1 X68.038 Y44.382 E0.02443
G1 X68.157 Y43.907 E0.02443
G1 X68.351 Y43.458 E0.0244
G1 X68.616 Y43.046 E0.02444
G0 F4500 X68.75 Y43.564
G1 F3000 X69.013 Y43.191 E0.02277
G1 X69.336 Y42.87 E0.02272
G1 X69.711 Y42.611 E0.02274
G1 X70.125 Y42.421 E0.02273
G1 X70.566 Y42.306 E0.02274
G1 X70.998 Y42.27 E0.02163
G1 X179.002 Y42.27 E5.38834
G1 X179.456 Y42.31 E0.02274
G1 X179.896 Y42.428 E0.02273
G1 X180.308 Y42.622 E0.02272
G1 X180.681 Y42.885 E0.02277
G1 X181.002 Y43.208 E0.02272
G1 X181.261 Y43.583 E0.02274
G1 X181.451 Y43.997 E0.02273
G1 X181.566 Y44.438 E0.02274
G1 X181.602 Y44.87 E0.02163
G1 X181.602 Y155.13 E5.50089
G1 X181.562 Y155.584 E0.02274
G1 X181.444 Y156.024 E0.02273
G1 X181.25 Y156.436 E0.02272
G1 X180.987 Y156.809 E0.02277
G1 X180.664 Y157.13 E0.02272
G1 X180.289 Y157.389 E0.02274
G1 X179.875 Y157.579 E0.02273
G1 X179.434 Y157.694 E0.02274
G1 X179.002 Y157.73 E0.02163
G1 X70.998 Y157.73 E5.38834
G1 X70.544 Y157.69 E0.02274
G1 X70.104 Y157.572 E0.02273
G1 X69.692 Y157.378 E0.02272
G1 X69.319 Y157.115 E0.02277
G1 X68.998 Y156.792 E0.02272
G1 X68.739 Y156.417 E0.02274
G1 X68.549 Y156.003 E0.02273
G1 X68.434 Y155.562 E0.02274
G1 X68.398 Y155.13 E0.02163
G1 X68.398 Y44.87 E5.50089
G1 X68.438 Y44.416 E0.02274
G1 X68.556 Y43.976 E0.02273
G1 X68.75 Y43.564 E0.02272
G0 F4500 X69.149 Y43.679
G1 F3000 X69.408 Y43.35 E0.02089
G1 X69.725 Y43.076 E0.0209
G1 X70.088 Y42.867 E0.0209
G1 X70.485 Y42.731 E0.02094
G1 X70.998 Y42.67 E0.02577
G1 X179.002 Y42.67 E5.38834
G1 X179.419 Y42.71 E0.0209
G1 X179.821 Y42.828 E0.0209
G1 X180.193 Y43.021 E0.02091
G1 X180.522 Y43.28 E0.02089
G1 X180.796 Y43.597 E0.0209
G1 X181.005 Y43.96 E0.0209
G1 X181.141 Y44.357 E0.02094
G1 X181.202 Y44.87 E0.02577
G1 X181.202 Y155.13 E5.50089
G1 X181.162 Y155.547 E0.0209
G1 X181.044 Y155.949 E0.0209
G1 X180.851 Y156.321 E0.02091
G1 X180.592 Y156.65 E0.02089
G1 X180.275 Y156.924 E0.0209
G1 X179.912 Y157.133 E0.0209
G1 X179.515 Y157.269 E0.02094
G1 X179.002 Y157.33 E0.02577
G1 X70.998 Y157.33 E5.38834
G1 X70.581 Y157.29 E0.0209
G1 X70.179 Y157.172 E0.0209
G1 X69.807 Y156.979 E0.02091
G1 X69.478 Y156.72 E0.02089
G1 X69.204 Y156.403 E0.0209
G1 X68.995 Y156.04 E0.0209
G1 X68.859 Y155.643 E0.02094
G1 X68.798 Y155.13 E0.02577
G1 X68.798 Y44.87 E5.50089
G1 X68.838 Y44.453 E0.0209
G1 X68.956 Y44.051 E0.0209
G1 X69.149 Y43.679 E0.02091
G0 F4500 X69.546 Y43.806
G1 F3000 X69.801 Y43.525 E0.01893
G1 X70.11 Y43.305 E0.01892
G1 X70.457 Y43.153 E0.0189
G1 X70.998 Y43.07 E0.02731
G1 X179.002 Y43.07 E5.38834
G1 X179.379 Y43.11 E0.01891
G1 X179.739 Y43.228 E0.0189
G1 X180.066 Y43.418 E0.01887
G1 X180.347 Y43.673 E0.01893
G1 X180.567 Y43.982 E0.01892
G1 X180.719 Y44.329 E0.0189
G1 X180.802 Y44.87 E0.02731
G1 X180.802 Y155.13 E5.50089
G1 X180.762 Y155.507 E0.01891
G1 X180.644 Y155.867 E0.0189
G1 X180.454 Y156.194 E0.01887
G1 X180.199 Y156.475 E0.01893
G1 X179.89 Y156.695 E0.01892
G1 X179.543 Y156.847 E0.0189
G1 X179.002 Y156.93 E0.02731
G1 X70.998 Y156.93 E5.38834
G1 X70.621 Y156.89 E0.01891
G1 X70.261 Y156.772 E0.0189
G1 X69.934 Y156.582 E0.01887
G1 X69.653 Y156.327 E0.01893
G1 X69.433 Y156.018 E0.01892
G1 X69.281 Y155.671 E0.0189
G1 X69.198 Y155.13 E0.02731
G1 X69.198 Y44.87 E5.50089
G1 X69.238 Y44.493 E0.01891
G1 X69.356 Y44.133 E0.0189
G1 X69.546 Y43.806 E0.01887
G0 F4500 X69.755 Y44.226
G1 F3000 X69.943 Y43.949 E0.0167
G1 X70.191 Y43.726 E0.01664
G1 X70.485 Y43.567 E0.01668
G1 X70.998 Y43.47 E0.02605
G1 X179.002 Y43.47 E5.38834
G1 X179.334 Y43.51 E0.01668
G1 X179.646 Y43.627 E0.01662
G1 X179.923 Y43.815 E0.0167
G1 X180.146 Y44.063 E0.01664
G1 X180.305 Y44.357 E0.01668
G1 X180.402 Y44.87 E0.02605
G1 X180.402 Y155.13 E5.50089
G1 X180.362 Y155.462 E0.01668
G1 X180.245 Y155.774 E0.01662
G1 X180.057 Y156.051 E0.0167
G1 X179.809 Y156.274 E0.01664
G1 X179.515 Y156.433 E0.01668
G1 X179.002 Y156.53 E0.02605
G1 X70.998 Y156.53 E5.38834
G1 X70.666 Y156.49 E0.01668
G1 X70.354 Y156.373 E0.01662
G1 X70.077 Y156.185 E0.0167
G1 X69.854 Y155.937 E0.01664
G1 X69.695 Y155.643 E0.01668
G1 X69.598 Y155.13 E0.02605
G1 X69.598 Y44.87 E5.50089
G1 X69.638 Y44.538 E0.01668
G1 X69.755 Y44.226 E0.01662
G0 F4500 X70.154 Y44.334
G1 F3000 X70.337 Y44.119 E0.01409
G1 X70.573 Y43.965 E0.01406
G1 X70.998 Y43.87 E0.02173
G1 X179.002 Y43.87 E5.38834
G1 X179.281 Y43.91 E0.01406
G1 X179.538 Y44.026 E0.01407
G1 X179.753 Y44.209 E0.01409
G1 X179.907 Y44.445 E0.01406
G1 X180.002 Y44.87 E0.02173
G1 X180.002 Y155.13 E5.50089
G1 X179.962 Y155.409 E0.01406
G1 X179.846 Y155.666 E0.01407
G1 X179.663 Y155.881 E0.01409
G1 X179.427 Y156.035 E0.01406
G1 X179.002 Y156.13 E0.02173
G1 X70.998 Y156.13 E5.38834
G1 X70.719 Y156.09 E0.01406
G1 X70.462 Y155.974 E0.01407
G1 X70.247 Y155.791 E0.01409
G1 X70.093 Y155.555 E0.01406
G1 X69.998 Y155.13 E0.02173
G1 X69.998 Y44.87 E5.50089
G1 X70.038 Y44.591 E0.01406
G1 X70.154 Y44.334 E0.01407
G0 F4500 X70.551 Y44.469
G1 F3000 X70.724 Y44.336 E0.01089
G1 X70.998 Y44.27 E0.01406
G1 X179.002 Y44.27 E5.38834
G1 X179.217 Y44.31 E0.01091
G1 X179.403 Y44.423 E0.01086
G1 X179.536 Y44.596 E0.01089
G1 X179.602 Y44.87 E0.01406
G1 X179.602 Y155.13 E5.50089
G1 X179.562 Y155.345 E0.01091
G1 X179.449 Y155.531 E0.01086
G1 X179.276 Y155.664 E0.01089
G1 X179.002 Y155.73 E0.01406
G1 X70.998 Y155.73 E5.38834
G1 X70.783 Y155.69 E0.01091
G1 X70.597 Y155.577 E0.01086
G1 X70.464 Y155.404 E0.01089
G1 X70.398 Y155.13 E0.01406
G1 X70.398 Y44.87 E5.50089
G1 X70.438 Y44.655 E0.01091
G1 X70.551 Y44.469 E0.01086
G0 F4500 X70.837 Y44.751
G1 F3000 X70.998 Y44.67 E0.00899
G1 X179.002 Y44.67 E5.38834
G1 X179.121 Y44.709 E0.00625
G1 X179.202 Y44.87 E0.00899
G1 X179.202 Y155.13 E5.50089
G1 X179.163 Y155.249 E0.00625
G1 X179.002 Y155.33 E0.00899
G1 X70.998 Y155.33 E5.38834
G1 X70.879 Y155.291 E0.00625
G1 X70.798 Y155.13 E0.00899
G1 X70.798 Y44.87 E5.50089
G1 X70.837 Y44.751 E0.00625
G1 F4800 E-1.2
;MESH:top_base.stl
G0 F4500 X71.612 Y45.484
G0 X74.076 Y75.793
G0 X74.417 Y76.715
G0 X75.027 Y77.547
G0 X75.811 Y78.153
G0 X76.581 Y78.463
G0 X77.759 Y78.697
G0 X77.772 Y78.197
;TYPE:WALL-OUTER
G1 F4800 E1.2
G1 F3000 X78.184 Y78.152 E0.02068
G1 X78.619 Y78.046 E0.02234
G1 X79.044 Y77.872 E0.02291
G1 X79.434 Y77.643 E0.02256
G1 X79.794 Y77.356 E0.02297
G1 X80.08 Y77.058 E0.02061
G1 X80.346 Y76.692 E0.02257
G1 X80.559 Y76.291 E0.02265
G1 X80.71 Y75.864 E0.0226
G1 X80.797 Y75.451 E0.02106
G1 X80.828 Y75.001 E0.0225
G1 X80.798 Y74.55 E0.02255
G1 X80.701 Y74.106 E0.02267
G1 X80.545 Y73.682 E0.02254
G1 X80.325 Y73.279 E0.02291
G1 X80.079 Y72.944 E0.02074
G1 X79.766 Y72.618 E0.02255
G1 X79.407 Y72.341 E0.02262
G1 X79.014 Y72.117 E0.02257
G1 X78.623 Y71.959 E0.02104
G1 X78.184 Y71.85 E0.02257
G1 X77.735 Y71.803 E0.02252
G1 X77.281 Y71.82 E0.02267
G1 X76.836 Y71.902 E0.02257
G1 X76.4 Y72.048 E0.02294
G1 X76.03 Y72.231 E0.02059
G1 X75.654 Y72.483 E0.02258
G1 X75.317 Y72.787 E0.02264
G1 X75.029 Y73.135 E0.02254
G1 X74.79 Y73.529 E0.02299
G1 X74.623 Y73.908 E0.02066
G1 X74.497 Y74.342 E0.02255
G1 X74.436 Y74.791 E0.02261
G1 X74.44 Y75.249 E0.02285
G1 X74.507 Y75.699 E0.0227
G1 X74.623 Y76.095 E0.02059
G1 X74.806 Y76.509 E0.02258
G1 X75.048 Y76.894 E0.02269
G1 X75.341 Y77.238 E0.02254
G1 X75.684 Y77.541 E0.02283
G1 X76.03 Y77.772 E0.02076
G1 X76.436 Y77.971 E0.02256
G1 X76.867 Y78.109 E0.02258
G1 X77.314 Y78.185 E0.02262
G1 X77.772 Y78.197 E0.02286
G0 F4500 X77.971 Y78.176
G0 X78.024 Y78.673
G0 X80.732 Y135.283
G0 X80.941 Y136.246
G0 X81.424 Y137.154
G0 X82.146 Y137.89
G0 X83.003 Y138.38
G0 X84.49 Y138.697
G0 X84.503 Y138.197
G1 F3000 X84.915 Y138.152 E0.02068
G1 X85.35 Y138.046 E0.02234
G1 X85.775 Y137.872 E0.02291
G1 X86.165 Y137.643 E0.02256
G1 X86.525 Y137.356 E0.02297
G1 X86.811 Y137.058 E0.02061
G1 X87.077 Y136.692 E0.02257
G1 X87.29 Y136.291 E0.02265
G1 X87.441 Y135.864 E0.0226
G1 X87.528 Y135.451 E0.02106
G1 X87.559 Y135.001 E0.0225
G1 X87.529 Y134.55 E0.02255
G1 X87.432 Y134.106 E0.02267
G1 X87.276 Y133.682 E0.02254
G1 X87.056 Y133.279 E0.02291
G1 X86.81 Y132.944 E0.02074
G1 X86.497 Y132.618 E0.02255
G1 X86.138 Y132.341 E0.02262
G1 X85.745 Y132.117 E0.02257
G1 X85.354 Y131.959 E0.02104
G1 X84.915 Y131.85 E0.02257
G1 X84.466 Y131.803 E0.02252
G1 X84.012 Y131.82 E0.02267
G1 X83.567 Y131.902 E0.02257
G1 X83.131 Y132.048 E0.02294
G1 X82.761 Y132.231 E0.02059
G1 X82.385 Y132.483 E0.02258
G1 X82.048 Y132.787 E0.02264
G1 X81.76 Y133.135 E0.02254
G1 X81.521 Y133.529 E0.02299
G1 X81.354 Y133.908 E0.02066
G1 X81.228 Y134.342 E0.02255
G1 X81.167 Y134.791 E0.02261
G1 X81.171 Y135.249 E0.02285
G1 X81.238 Y135.699 E0.0227
G1 X81.354 Y136.095 E0.02059
G1 X81.537 Y136.509 E0.02258
G1 X81.779 Y136.894 E0.02269
G1 X82.072 Y137.238 E0.02254
G1 X82.415 Y137.541 E0.02283
G1 X82.761 Y137.772 E0.02076
G1 X83.167 Y137.971 E0.02256
G1 X83.598 Y138.109 E0.02258
G1 X84.045 Y138.185 E0.02262
G1 X84.503 Y138.197 E0.02286
G0 F4500 X84.702 Y138.176
G0 X84.755 Y138.673
G0 X165.77 Y138.697
G0 X165.783 Y138.197
G1 F3000 X166.195 Y138.152 E0.02068
G1 X166.63 Y138.046 E0.02234
G1 X167.055 Y137.872 E0.02291
G1 X167.445 Y137.643 E0.02256
G1 X167.805 Y137.356 E0.02297
G1 X168.091 Y137.058 E0.02061
G1 X168.357 Y136.692 E0.02257
G1 X168.57 Y136.291 E0.02265
G1 X168.721 Y135.864 E0.0226
G1 X168.808 Y135.451 E0.02106
G1 X168.839 Y135.001 E0.0225
G1 X168.809 Y134.55 E0.02255
G1 X168.712 Y134.106 E0.02267
G1 X168.556 Y133.682 E0.02254
G1 X168.336 Y133.279 E0.02291
G1 X168.09 Y132.944 E0.02074
G1 X167.777 Y132.618 E0.02255
G1 X167.418 Y132.341 E0.02262
G1 X167.025 Y132.117 E0.02257
G1 X166.634 Y131.959 E0.02104
G1 X166.195 Y131.85 E0.02257
G1 X165.746 Y131.803 E0.02252
G1 X165.292 Y131.82 E0.02267
G1 X164.847 Y131.902 E0.02257
G1 X164.411 Y132.048 E0.02294
G1 X164.041 Y132.231 E0.02059
G1 X163.665 Y132.483 E0.02258
G1 X163.328 Y132.787 E0.02264
G1 X163.04 Y133.135 E0.02254
G1 X162.801 Y133.529 E0.02299
G1 X162.634 Y133.908 E0.02066
G1 X162.508 Y134.342 E0.02255
G1 X162.447 Y134.791 E0.02261
G1 X162.451 Y135.249 E0.02285
G1 X162.518 Y135.699 E0.0227
G1 X162.634 Y136.095 E0.02059
G1 X162.817 Y136.509 E0.02258
G1 X163.059 Y136.894 E0.02269
G1 X163.352 Y137.238 E0.02254
G1 X163.695 Y137.541 E0.02283
G1 X164.041 Y137.772 E0.02076
G1 X164.447 Y137.971 E0.02256
G1 X164.878 Y138.109 E0.02258
G1 X165.325 Y138.185 E0.02262
G1 X165.783 Y138.197 E0.02286
G0 F4500 X165.982 Y138.176
G0 X166.035 Y138.673
G0 X178.332 Y154.46
G0 X178.802 Y154.93
G1 F3000 X71.198 Y154.93 E5.36839
G1 X71.198 Y45.07 E5.48094
G1 X178.802 Y45.07 E5.36839
G1 X178.802 Y154.93 E5.48094
G0 F4500 X178.602 Y154.93
G0 X178.332 Y154.46
G0 X172.501 Y78.697
G0 X172.514 Y78.197
G1 F3000 X172.926 Y78.152 E0.02068
G1 X173.361 Y78.046 E0.02234
G1 X173.786 Y77.872 E0.02291
G1 X174.176 Y77.643 E0.02256
G1 X174.536 Y77.356 E0.02297
G1 X174.822 Y77.058 E0.02061
G1 X175.088 Y76.692 E0.02257
G1 X175.301 Y76.291 E0.02265
G1 X175.452 Y75.864 E0.0226
G1 X175.539 Y75.451 E0.02106
G1 X175.57 Y75.001 E0.0225
G1 X175.54 Y74.55 E0.02255
G1 X175.443 Y74.106 E0.02267
G1 X175.287 Y73.682 E0.02254
G1 X175.067 Y73.279 E0.02291
G1 X174.821 Y72.944 E0.02074
G1 X174.508 Y72.618 E0.02255
G1 X174.149 Y72.341 E0.02262
G1 X173.756 Y72.117 E0.02257
G1 X173.365 Y71.959 E0.02104
G1 X172.926 Y71.85 E0.02257
G1 X172.477 Y71.803 E0.02252
G1 X172.023 Y71.82 E0.02267
G1 X171.578 Y71.902 E0.02257
G1 X171.142 Y72.048 E0.02294
G1 X170.772 Y72.231 E0.02059
G1 X170.396 Y72.483 E0.02258
G1 X170.059 Y72.787 E0.02264
G1 X169.771 Y73.135 E0.02254
G1 X169.532 Y73.529 E0.02299
G1 X169.365 Y73.908 E0.02066
G1 X169.239 Y74.342 E0.02255
G1 X169.178 Y74.791 E0.02261
G1 X169.182 Y75.249 E0.02285
G1 X169.249 Y75.699 E0.0227
G1 X169.365 Y76.095 E0.02059
G1 X169.548 Y76.509 E0.02258
G1 X169.79 Y76.894 E0.02269
G1 X170.083 Y77.238 E0.02254
G1 X170.426 Y77.541 E0.02283
G1 X170.772 Y77.772 E0.02076
G1 X171.178 Y77.971 E0.02256
G1 X171.609 Y78.109 E0.02258
G1 X172.056 Y78.185 E0.02262
G1 X172.514 Y78.197 E0.02286
G0 F4500 X172.713 Y78.176
G0 X172.531 Y78.598
;TYPE:WALL-INNER
